X:174
T:Sally Gardens (reel), The  
B:CRE1.100 (Garranta Saili)
F:file ID: cre.1/174sally_g
S:Sonny Brogan
M:C
L:1/8
Q:180
R:reel
K:G
D|(3GFG DG BdGB|dgeB dBAB|d2Bd edge|dBAB GEDE|
(3GFG DG BdGB|dgeB dBAB|d2Bd edge|dBAB G3:|
B|egga g2df|gabg aged|eaag a2ea|agbg ageg|
dggf g2df|gabg ageg|d2Bd edge|dBAB G3:|

%%%

